X: 1253
T: An Dro St Nazaire
R: barndance
M: 4/4
K: Aminor
"Dm"d2edc2A2|"F"d2cBA2d2|"G"cdedc2A2|"Am"d2cBA4:|
"Dm"d2e2f4|"F"edefe4|"G"d2e2f3d|"Am"d2c2d2A2:|

